src/assets/icons/phone.svg

<svg width="20" height="20" viewBox="0 0 20 20" fill="none" xmlns="http://www.w3.org/2000/svg">
<g clip-path="url(#clip0)">
<path d="M8.28143 11.7183C6.37246 9.80933 5.94143 7.90037 5.84419 7.13554C5.81702 6.92406 5.88979 6.71198 6.04108 6.56175L7.58591 5.01761C7.81316 4.7905 7.85349 4.43657 7.68315 4.16416L5.2235 0.344852C5.03506 0.0432134 4.64813 -0.0656509 4.33005 0.0934725L0.38143 1.95313C0.124209 2.07979 -0.027085 2.35308 0.00211964 2.6383C0.209016 4.60382 1.06591 9.43554 5.81419 14.1842C10.5625 18.9328 15.3935 19.7893 17.3601 19.9962C17.6453 20.0254 17.9186 19.8741 18.0452 19.6169L19.9049 15.6683C20.0634 15.3509 19.9553 14.965 19.6549 14.7762L15.8356 12.3173C15.5633 12.1468 15.2094 12.1868 14.9821 12.4138L13.438 13.9586C13.2877 14.1099 13.0757 14.1827 12.8642 14.1555C12.0994 14.0583 10.1904 13.6273 8.28143 11.7183Z" fill="white"/>
<path d="M15.8618 10.6896C15.4809 10.6896 15.1721 10.3809 15.1721 9.99996C15.1689 7.14466 12.855 4.83078 9.99971 4.82755C9.61883 4.82755 9.31006 4.51878 9.31006 4.1379C9.31006 3.75701 9.61883 3.44824 9.99971 3.44824C13.6165 3.45223 16.5474 6.3832 16.5514 9.99996C16.5514 10.3809 16.2427 10.6896 15.8618 10.6896Z" fill="white"/>
<path d="M19.3101 10.6897C18.9292 10.6897 18.6204 10.3809 18.6204 10C18.6151 5.24113 14.7586 1.38463 9.99971 1.37931C9.61883 1.37931 9.31006 1.07054 9.31006 0.689655C9.31006 0.308769 9.61883 0 9.99971 0C15.52 0.00608133 19.9936 4.47967 19.9997 10C19.9997 10.1829 19.9271 10.3583 19.7977 10.4877C19.6684 10.617 19.493 10.6897 19.3101 10.6897Z" fill="white"/>
</g>
<defs>
<clipPath id="clip0">
<rect width="20" height="20" fill="white"/>
</clipPath>
</defs>
</svg>

<svg width="20" height="20" fill="none" xmlns="http://www.w3.org/2000/svg"><g clip-path="url(#clip0)" fill="#fff"><path d="M8.281 11.718C6.372 9.81 5.941 7.9 5.844 7.136a.686.686 0 01.197-.574l1.545-1.544a.69.69 0 00.097-.854L5.223.344a.69.69 0 00-.893-.25L.381 1.953a.686.686 0 00-.379.684C.21 4.604 1.066 9.436 5.814 14.184c4.748 4.749 9.58 5.605 11.546 5.812a.686.686 0 00.685-.38l1.86-3.948a.69.69 0 00-.25-.892l-3.82-2.459a.69.69 0 00-.853.097l-1.544 1.545a.685.685 0 01-.574.197c-.765-.098-2.674-.529-4.583-2.438z"/><path d="M15.862 10.69a.69.69 0 01-.69-.69A5.178 5.178 0 0010 4.828a.69.69 0 010-1.38A6.559 6.559 0 0116.55 10a.69.69 0 01-.69.69z"/><path d="M19.31 10.69a.69.69 0 01-.69-.69A8.63 8.63 0 0010 1.38.69.69 0 0110 0c5.52.006 9.994 4.48 10 10a.69.69 0 01-.69.69z"/></g><defs><clipPath id="clip0"><path fill="#fff" d="M0 0h20v20H0z"/></clipPath></defs></svg>
